X:1
T:Sechs Geistliche Gesänge aus Friedrich Oser's Kreuz- und Trostliedern
T:Du bist ja doch der Herr
T:Moritz Hauptmann
T:Friedrich Oser
T:Du bist ja doch der Herr
T:Sechs Geistliche Gesänge, Op. 42, No. 4
T:CPDL   —   Creative Commons Attribution Non Commercial 3.0
T:CPDL   —   Creative Commons Attribution Non Commercial 3.0
T:CPDL   —   Creative Commons Attribution Non Commercial 3.0
T:CPDL   —   Creative Commons Attribution Non Commercial 3.0
T:CPDL   —   Creative Commons Attribution Non Commercial 3.0
T:CPDL   —   Creative Commons Attribution Non Commercial 3.0
T:CPDL   —   Creative Commons Attribution Non Commercial 3.0
C:Moritz Hauptmann
Z:Friedrich Oser
Z:CPDL   —   Creative Commons Attribution Non Commercial 3.0
%%score [ 1 2 3 4 ]
L:1/8
Q:1/4=120
M:4/4
K:Eb
V:1 treble nm="Sopran"
V:2 treble nm="Alt"
V:3 treble-8 nm="Tenor"
V:4 bass nm="Bass"
V:1
!p!"^Andante" B2 | G2 F2 E2 F2 | G2 B2!<(! e2 d2!<)! |!>(! (d3 c)!>)! B4 | z2!p! B2 G2 F2 | %5
w: Du|bist ja doch der|Herr, auf den wir|hof- * fen;|zur Zeit der|
 E2 F2!<(! G2 B2 | e2 d2!<)! (d3 c) | B4 z2"^dolce" B2 | B2 B2 e2 d2 | c2 e2 G2 =A2 | B4 F2 B2 | %11
w: Not die Burg, für|je- den of- *|fen! Du|bist ja doch der|Herr, und doch die|Lie- be, ob|
 B2 B2 e2 d2 | c2 e2 G2 =A2 | c4 B4 | z8 | z2!mf! _d2 c2 B2 | A2 A2!<(! A4-!<)! | A2 G2 A2 cB | %18
w: nichts auch au- ßer|dir uns Ärms- ten|blie- be,||ob mit- ten|auch durch's Herz|_ das Weh ge- *|
 A4 G2 z2 | z8 | z2!mf! e2 =d2 c2 | B2"^cresc." B2 B4- | B2 =A2 B2 dc | B4 =A2 z2 | %24
w: trof- fen,||ob mit- ten|auch durch's Herz|_ das Weh ge- *|trof- fen,|
 z2!f! =A2 B2 c2 | d2 d2 d2[Q:1/4=110]"^ritard." fe | (d4 c4) | B4 z2!p![Q:1/4=120]"^a" B2 | %28
w: ob auch durch's|Herz das Weh ge- *|trof- *|fen, du|
[Q:1/4=120]"^tempo" G2 F2 E2 F2 |"^cresc." G2 B2 e2 f2 |!f! (g6 G2) |"^dolce" G4!<(! (G2 c2)!<)! | %32
w: bist ja doch der|Herr, auf den wir|hof- *|fen, auf _|
 c4 (A2 F2) |"^dim." (B4 D4) | E2 z2!mf! B4- | B2 e2 c2 B2 | A2 z2 A4- | A2"^dim." (c2 B2) A2 | %38
w: den wir _|hof- *|fen, du,|_ du bist der|Herr, du|_ bist _ der|
 G2!mf! g2 e2 d2 | c2 z2 c4- | c2 (f2 d2) c2 | B8- | B2 e2 c2 B2 | %43
w: Herr, du bist der|Herr, du|_ bist _ der|Herr,|_ du bist der|
[Q:1/4=106]"^poco ritard." A2"^cresc." c2 f3 e |!f! (e6 d2) | %45
w: Herr, auf den wir|hof- *|
 d4 z2[Q:1/4=102]"^poco più lento""^dolce" B2 | G2 F2 E2!<(! F2 | G2!<)! B2 e2 A2 | %48
w: fen, du|bist ja doch der|Herr, auf den wir|
[Q:1/4=96]"^ritard." (G4 F3 E) | E8 |] %50
w: hof- * *|fen!|
V:2
!p! B2 | G2 F2 E2 D2 | E2 F2!<(! E2 E2!<)! |!>(! E4!>)! E4 | z2!p! B2 G2 F2 | E2 D2!<(! B,2 D2 | %6
w: ||||||
 E2 G2!<)! (E2 F2) | G4 z2"^dolce" G2 | G2 F2 =A2 B2 | G2 G2 E2 E2 | D4 F2 _A2 | G2 F2 G=A B2 | %12
w: ||||||
 G2 G2 E2 E2 | E4 D4 | z2!mf! B2 G2 F2 | =E2 G2 C2 E2 | F6!<(! F2!<)! | F6 AG | F4 =E2 z2 | %19
w: ||ob mit- ten|auch durch's Herz das|Weh, das|Weh ge- *|trof- fen,|
 z2!mf! c2 A2 G2 | ^F2 =A2 D2 F2 |"^dolce" G6 G2 | G6 B=A | G4 ^F2 z2 | z2!f! D2 D2 =F2 | %25
w: ob mit- ten|auch durch's Herz das|Weh, das|Weh ge- *|trof- fen,||
 F2 ^F2 B2 G2 | (=F4- F3 E) | D4 z2!p! B2 | G2 F2 E2 D2 |"^cresc." E2 F2 E2 E2 |!f! (E4 D2 C2) | %31
w: ||||||
"^dolce" D4!<(! =E4!<)! | F4 (C2 _C2) |"^dim." (B,4 A,4) | G,2!mf! B2 G2 F2 | E2 z2 E4- | %36
w: |||* du bist der|Herr, du|
 E2 (A2 F2) E2 |"^dim." D6 D2 | E2 z2!mf! G4- | G2 c2 A2 G2 | F2 z2 F4- | F2 (B2 G2) F2 | E6 =E2 | %43
w: _ bist _ ja|doch der|Herr, du,|_ du bist der|Herr, du|_ bist _ der|Herr, der|
 F2"^cresc." F2 C2 A2 |!f! A8 | A4 z4 | z4 z2"^dolce"!<(! D2 | E2!<)! DC B,2 F2 | (F2 E4 D2) | %49
w: Herr, auf den wir|hof-|fen,|der|Herr, auf _ den wir|hof- * *|
 E8 |] %50
w: fen!|
V:3
!p! B2 | G2 F2 E2 B2 | B2 F2!<(! G2 B2!<)! |!>(! (B3 A)!>)! G4 | z2!p! B2 G2 F2 | E2 B2!<(! G2 A2 | %6
w: Du|bist ja doch der|Herr, auf den wir|hof- * fen;|zur Zeit der|Not die Burg, für|
 B2 =B2!<)! (c2 d2) | e4 z2"^dolce" e2 | e2 d2 c2 B2 | e2 c2 c2 F2 | B4 d2 f2 | e2 d2 c2 B2 | %12
w: je- den of- *|fen! Du|bist ja doch der|Herr, und doch die|Lie- be, ob|nichts auch au- ßer|
 e2 c2 c2 F2 | =A4 B4 | z4 z2!mf! _d2 | c2 B2 A2 G2 | F2 c2!<(! F2 A2!<)! | _d6 c2 | c4 c2 z2 | %19
w: dir uns Ärms- ten|blie- be,|ob|mit- ten auch durch's|Herz das Weh, das|Weh ge-|trof- fen,|
 z4 z2!mf! e2 | d2 c2 B2 =A2 | G2"^dolce" d2 G2 B2 | e6 e2 | d4 d2 z2 | z2!f! ^F2 G2 =A2 | %25
w: ob|mit- ten auch durch's|Herz das Weh, das|Weh ge-|trof- fen,|ob auch durch's|
 B2 B2 B2 dc | (c2 B4 =A2) | B4 z2!p! B2 | G2 F2 E2 B2 |"^cresc." B2 F2 G2 c2 |!f! (c4 =B2 =A2) | %31
w: Herz das Weh ge- *|trof- * *|fen, du|bist ja doch der|Herr, auf den wir|hof- * *|
"^dolce" =B4!<(! _B4!<)! | _A6 A2 |"^dim." (G4 F4) | E2 z2!mf! G4- | G2 c2 A2 G2 | F2 z2 F4- | %37
w: fen, auf|den wir|hof- *|fen, du,|_ du bist der|Herr, du,|
 F2"^dim." (A2 G2) F2 | E2!mf! e2 c2 B2 | A2 z2 A4- | A2 (d2 B2) A2 | G8- | G2 c2 A2 G2 | %43
w: _ bist _ der|Herr, du bist der|Herr, du|_ bist _ der|Herr,|_ du bist der|
 F2"^cresc." A2 c2 f2 |!f! (f6 B2) | B4 z4 | z2"^dolce" B2 G2!<(! F2 | E2!<)! A2 G2 c2 | (B4 A4) | %49
w: Herr, auf den wir|hof- *|fen,|du bist der|Herr, auf den wir|hof- *|
 G8 |] %50
w: fen!|
V:4
!p! B,2 | G,2 F,2 E,2 B,,2 | E,2 D,2!<(! C,2 G,,2!<)! |!>(! (A,,2 C,2)!>)! E,4 | %4
w: ||||
 z2!p! B,2 G,2 F,2 | E,2 B,,2!<(! E,2 F,2 | G,2 E,2!<)! A,4 | E,4 z4 | z8 | z8 | z8 | z8 | z8 | %13
w: |||||||||
 z8 | z8 | z2!mf! =E,2 F,2 C,2 | F,,2 A,,2!<(! _D,2 C,2!<)! | B,,6 G,,2 | C,4 C,2 z2 | z8 | %20
w: ||ob mit- ten|auch durch's Herz das|Weh ge-|trof- fen,||
 z2!mf! ^F,2 G,2 =D,2 | G,,2"^dolce" B,,2 _E,2 D,2 | C,6 =A,,2 | D,4 D,2 z2 | z2!f! D,2 G,2 =F,2 | %25
w: ob mit- ten|auch durch's Herz das|Weh ge-|trof- fen,||
 B,2 =A,2 G,2 E,2 | F,8 | B,,4 z2!p! B,2 | G,2 F,2 E,2 B,,2 |"^cresc." E,2 D,2 C,2 A,2 |!f! G,8 | %31
w: ||||||
"^dolce" G,4!<(! C,4!<)! | F,,6 A,,2 |"^dim." B,,8 | [E,,E,]2!mf! G,2 E,2 D,2 | C,2 z2 C,4- | %36
w: |||* du bist der|Herr, du|
 C,2 (F,2 D,2) C,2 |"^dim." B,,6 B,,2 | C,2 z2!mf! E,4- | E,2 A,2 F,2 E,2 | D,2 z2 D,4- | %41
w: _ bist _ ja|doch der|Herr, du,|_ du bist der|Herr, du|
 D,2 (G,2 E,2) D,2 | C,6 C,2 | F,2"^cresc." C,2 A,,2 F,,2 |!f! B,,8 | B,,4 z4 | %46
w: _ bist _ der|Herr, der|Herr, auf den wir|hof-|fen,|
 z4 z2"^dolce"!<(! B,,2 | E,2!<)! F,2 G,2 A,2 | (B,4 B,,4) | [E,,E,]8 |] %50
w: der|Herr, auf den wir|hof- *|fen!|

